icon-themes/breeze_svg/cmd/32/mergecells.svg

<svg viewBox="0 0 32 32" xmlns="http://www.w3.org/2000/svg"><path d="m4 4v24h24v-24zm1 1h7v2h-7zm8 0h6v2h-6zm7 0h7v2h-7zm-15 3h7v3h-7zm8 0h6 1 7v3 1 3 1 3 1 3h-7-1-6v-3-1-3-1-3-1zm-8 4h7v3h-7zm0 4h7v3h-7zm0 4h7v3h-7zm0 4h7v3h-7zm8 0h6v3h-6zm7 0h7v3h-7z" fill="#4d4d4d"/></svg>

<svg xmlns="http://www.w3.org/2000/svg" viewBox="0 0 32 32">
 <path 
     style="fill:#4d4d4d" 
     d="M 4 4 L 4 28 L 28 28 L 28 4 L 4 4 z M 5 5 L 12 5 L 12 7 L 5 7 L 5 5 z M 13 5 L 19 5 L 19 7 L 13 7 L 13 5 z M 20 5 L 27 5 L 27 7 L 20 7 L 20 5 z M 5 8 L 12 8 L 12 11 L 5 11 L 5 8 z M 13 8 L 19 8 L 20 8 L 27 8 L 27 11 L 27 12 L 27 15 L 27 16 L 27 19 L 27 20 L 27 23 L 20 23 L 19 23 L 13 23 L 13 20 L 13 19 L 13 16 L 13 15 L 13 12 L 13 11 L 13 8 z M 5 12 L 12 12 L 12 15 L 5 15 L 5 12 z M 5 16 L 12 16 L 12 19 L 5 19 L 5 16 z M 5 20 L 12 20 L 12 23 L 5 23 L 5 20 z M 5 24 L 12 24 L 12 27 L 5 27 L 5 24 z M 13 24 L 19 24 L 19 27 L 13 27 L 13 24 z M 20 24 L 27 24 L 27 27 L 20 27 L 20 24 z "
     />
</svg>
